X:1
T:Happy in the Love of Jesus
T:Happy in the Love of Jesus
T:Joseph Lincoln Hall
T:Jennie Wilson, 1897
T:Public Domain Courtesy of the Cyber Hymnal™
C:Joseph Lincoln Hall
Z:Public Domain
Z:Courtesy of the Cyber Hymnal™
%%score ( 1 2 ) ( 3 4 )
L:1/8
Q:1/4=109
M:4/4
K:F
V:1 treble 
V:2 treble 
V:3 bass 
V:4 bass 
V:1
 [FA]2 [Fc]2 [Fd]2 [Fc]2 | F2 [FB]2 [FA]4 | [EG][EG][EG][EG] [DF]2 [EG]2 | [FA]2 [Fc]6 | %4
w: 1.~Home to Zi- on|we are bound,|Hap- py in the love of|Je- sus,|
w: 2.~Trust- ing we will|for- ward go,|Hap- py in the love of|Je- sus,|
w: 3.~We will sing sal-|va- tion’s song,|Hap- py in the love of|Je- sus,|
w: 4.~Soon we’ll reach the|home- land fair,|Hap- py in the love of|Je- sus,|
 [FA]2 [Fc]2 [Fd]2 [Fc]2 | F2 [FB]2 [FA]4 | [Ec][EG][EG][FA] [EB]2 [CE]2 | [CG]2 [CF]6 || %8
w: Peace a- bid- ing|we have found,|Hap- py in the love of|Je- sus.|
w: Tread- ing change- ful|paths be- low,|Hap- py in the love of|Je- sus.|
w: All our earth- ly|way a- long,|Hap- py in the love of|Je- sus.|
w: And shall dwell for-|ev- er there,|Hap- py in the love of|Je- sus.|
"^Refrain" [Fd]4 [Ff]4 | [Ac]4 [FA]4 | [Ec][EG][EG][FA] [GB]4 | [Fd][Fc][Fc][FA] [Fc]4 | %12
w: ||||
w: Hap- py,|hap- py,|Sing- ing all the way,|Hap- py all the day;|
w: ||||
w: ||||
 [Fd]4 [Ff]4 | [Ac]4 [FA]4 | [Ec][EG][EG][FA] [EB]2 [CE]2 | [CG]2 [CF]6 |] %16
w: ||||
w: Hap- py,|hap- py,|Hap- py in the love of|Je- sus.|
w: ||||
w: ||||
V:2
 x8 | F2 x6 | x8 | x8 | x8 | F2 x6 | x8 | x8 || x8 | x8 | x8 | x8 | x8 | x8 | x8 | x8 |] %16
V:3
 [F,C]2 [F,A,]2 [F,B,]2 [F,A,]2 | [F,A,]2 [F,D]2 [F,C]4 | [C,C][C,C][C,C][C,C] [C,C]2 [C,C]2 | %3
 [F,C]2 [F,A,]6 | [F,C]2 [F,A,]2 [F,B,]2 [F,A,]2 | [F,A,]2 [F,D]2 [F,C]4 | %6
 [C,C][C,C][C,C][C,C] [C,G,]2 [C,B,]2 | [F,B,]2 [F,A,]6 || B,4 [B,D]4 | [F,F]4 [F,C]4 | %10
 [C,C][C,C][C,C][C,C] [C,C]4 | [F,B,][F,A,][F,A,][F,C] [F,A,]4 | B,4 [B,D]4 | [F,F]4 [F,C]4 | %14
 [C,C][C,C][C,C][C,C] [C,G,]2 [C,B,]2 | [F,B,]2 [F,A,]6 |] %16
V:4
 x8 | x8 | x8 | x8 | x8 | x8 | x8 | x8 || B,4 x4 | x8 | x8 | x8 | B,4 x4 | x8 | x8 | x8 |] %16

